X: 3
T: Nyth Y Gwcw
R: barndance
M: 4/4
L: 1/8
K: Edor
|:F2|GFGF E2 e2|B2 B2 B2 A2|GFGF E2 Bc|d2 d2 d2 F2|
GFGF E2 e2|B2 B2 B2 A2|